X:1
T:I Vaarnattens Drømme
T:I Vaarnattens Drømme
T:(johan Halmrast.)
T:Agathe Backer Grøndahl, Op.67.No. 4.
C:Agathe Backer Grøndahl, Op.67.No. 4.
%%score [ 1 2 3 ]
L:1/8
Q:1/4=126
M:4/4
K:F
V:1 treble nm="S1"
V:2 treble nm="S2"
V:3 treble nm="A"
V:1
"^Allegretto."!mf! F2"^leggiero" A B c2 f c | d2 A2 (c2 f) c | d2 A2 c4 | d2 d d (dc) B A | %4
w: Bøl- ger- ne hvi- ske i|Maa- ne- skin, _ i|Maa- ne- skin,|sag- te mod Stran- * den de|
 G4 F2 z2 |!p! A2 c d e2 d e | f2 d2 (e2 =B) c | d2 =B2 (c2 _e2) | (dA)!<(! B c d2 g f!<)! | %9
w: strø- me.|Bir- ken- e tyst i den|lu- ne Vind, i den|lun- ne Vind, _|vug- * ger i vaar- nat- tens|
 e2 d2 c2 d c | =B2 G A _B2 c B |"^dim." A2 F2 ^G2 G2 | A2 F2 _A2 A A | B4!>(! _A2 A2!>)! | G4 F4 | %15
w: Drøm- me, Bir- ke- ne|vug- ger i Vaa- nat- tens|Drøm- me. vug- ger|sag- te, sag- te i|Vaar- nat- tens|Drøm- me,|
"^poco sost." F4 E4 |!mf! F2 A B c2 f c | d2 A2 c2 f c | d2 A2 c4 | d2 d d (dc) B A | G4 F2 z2 | %21
w: sag- te.|Min- der- nes Sang mod den|tau- se Kyst, mod den|tau- se Kyst|lok- ker i To- * ner saa|øm- me.|
 A2 c d e2 d e | f2 d2 (e2 =B) c | d2 =B2 (c2 _e2) | (dA)!<(! B c d2 g f!<)! | e2 d2 c2 d c | %26
w: Stil- le de kom- mer saa|tyst, saa tyst, _ saa|tyst, saa tyst, _|hvi- * sker i Vaar- nat- tens|Drøm- me, sag- te i|
 =B2 G A _B2 (cB) | A2 F"^dim." F ^G2 G2 | A2 F2 F2 F F | F4 F2"^morendo" F2 | F4 F4 |!pp! F8 | %32
w: Vaar- na- tens Drøm- me, *|stil- le de kom- mer|hvi- sker sag- te i|Vaar- nat- tens|Drøm- me,|sag-|
"^rit." F4 z4 |] %33
w: te!|
V:2
!mf! C2"^leggiero" F G A2 c A | A2 F2 (A2 c) A | A2 F2 (G2 B2) | (Ac) B A (BA) G F | %4
w: Bøl- ger- ne hvi- ske i|Maa- ne- skin, _ i|Maa- ne- skin, _|sag- * te mod Stran- * den de|
 (F2 ED) C2 z2 |!p! E2 A =B c2 B c | d2 =B2 (c2 A) A | A2 A2 (A2 G2) | ^F2!<(! G A B2 d d!<)! | %9
w: strø- * * me.|Bir- ken- e tyst i den|lu- ne Vind, i den|lun- ne Vind, _|vug- ger i vaar- nat- tens|
 c2 B2 A2 A A | F2 F F F2 F F |"^dim." F2 F2 F2 F2 | F2 F2 F2 F F | _G4!>(! F2 F2!>)! | E4 _D4 | %15
w: Drøm- me, Bir- ke- ne|vug- ger i Vaa- nat- tens|Drøm- me. vug- ger|sag- te, sag- te i|Vaar- nat- tens|Drøm- me,|
"^poco sost." (B,2 _D2) (C2 B,2) |!mf! C2 F G A2 c A | A2 F2 A2 c A | A2 F2 (G2 B2) | %19
w: sag- * te. _|Min- der- nes Sang mod den|tau- se Kyst, mod den|tau- se Kyst _|
 (Ac) B A (BA) G F | (F2 ED) C2 z2 | E2 A =B c2 B c | d2 =B2 (c2 A) A | A2 A2 (A2 G2) | %24
w: lok- * ker i To- * ner saa|øm- * * me.|Stil- le de kom- mer saa|tyst, saa tyst, _ saa|tyst, saa tyst, _|
 ^F2!<(! G A B2 d d!<)! | c2 B2 A2 A A | F2 F F F2 F2 | F2 F"^dim." F F2 F2 | F2 F2 _D2 ^C C | %29
w: hvi- sker i Vaar- nat- tens|Drøm- me, sag- te i|Vaar- na- tens Drøm- me,|stil- le de kom- mer|hvi- sker sag- te i|
 =D4 _E2"^morendo" E2 | D4 _D4 |!pp! C8 |"^rit." C4 z4 |] %33
w: Vaar- nat- tens|Drøm- me,|sag-|te!|
V:3
!mf! (A,C)"^leggiero" F F F2 A F | F2 D2 (FGA) F | F2 D2 (E2 G2) | (^FA) G F (GD) G, B, | %4
w: Bøl- * ger- ne hvi- ske i|Maa- ne- skin, _ _ i|Maa- ne- skin, _|sag- * te mod Stran- * den de|
 (C3 B,) A,2 z2 |!p! (CE) A A A2 A A | D2 A2 (A2 E) E | F2 D2 (A,2 C2) | %8
w: strø- * me.|Bir- * ken- e tyst i den|lu- ne Vind, i den|lun- ne Vind, _|
 (DC)!<(! B, A, (G,A,) B, =B,!<)! | C2 E2 F2 F _E | D2 F F _D2 _E D |"^dim." C2 F2 =B,2 ^A, B, | %12
w: vug- * ger i vaar- * nat- tens|Drøm- me, Bir- ke- ne|vug- ger i Vaa- nat- tens|Drøm- me. vug- * ger|
 C2 F2 _C2 _D C | B,4!>(! =B,2 B,2!>)! | C4 _A,4 |"^poco sost." (G,2 B,2) (=C2 G,2) | %16
w: sag- te, sag- te i|Vaar- nat- tens|Drøm- me,|sag- * te. _|
!mf! (A,C) F F F2 A F | F2 D2 (FG) A F | F2 D2 (E2 G2) | (^FA) G F (GD) G, B, | (C3 B,) A,2 z2 | %21
w: Min- * der- nes Sang mod den|tau- se Kyst, _ mod den|tau- se Kyst _|lok- * ker i To- * ner saa|øm- * me.|
 (CE) A A A2 A A | D2 A2 (A E2) E | F2 D2 (A,2 C2) | (DC)!<(! B, A, (G,A,) B, =B,!<)! | %25
w: Stil- * le de kom- mer saa|tyst, saa tyst, _ saa|tyst, saa tyst, _|hvi- * sker i Vaar- * nat- tens|
 C2 E2 F2 F _E | D2 F F _D2 (_E=D) | C2 F"^dim." F =B,2 (^A,B,) | C2 A,2 _A,2 =A, A, | %29
w: Drøm- me, sag- te i|Vaar- na- tens Drøm- me, *|stil- le de kom- mer _|hvi- sker sag- te i|
 B,4 _C2"^morendo" C2 | B,4 B,4 |!pp! (B,4 A,2 G,2) |"^rit." A,4 z4 |] %33
w: Vaar- nat- tens|Drøm- me,|sag- * *|te!|

